src/topics/icons/kloudless.svg

<svg height="256" preserveAspectRatio="xMidYMid" viewBox="0 0 256 256" width="256" xmlns="http://www.w3.org/2000/svg"><path d="m76.843 77.835-40.458-40.438c-.84.84-1.127 2.242-.687 3.965l10.42 40.426c.906 3.477-1.106 7.397-4.434 8.703l-38.84 15.323c-1.68.66-2.613 1.722-2.812 2.906l56.515 8.953c2.418-15.437 9.716-29.264 20.296-39.838" fill="#3c98ff"/><path d="m55.651 128.995c0-3.85.301-7.628.896-11.322l-56.515-8.953c-.18 1.188.4 2.5 1.792 3.627l32.194 26.577c2.756 2.291 3.447 6.633 1.527 9.657l-22.419 35.227c-.957 1.521-1.09 2.937-.57 3.998l50.994-25.961c-5.038-9.868-7.899-21.024-7.899-32.85" fill="#1b5ced"/><path d="m116.683 57.532-8.955-56.494c-1.183.189-2.246 1.137-2.906 2.801l-15.333 38.836c-1.31 3.341-5.215 5.337-8.705 4.44l-40.412-10.426c-1.746-.467-3.131-.154-3.987.708l40.458 40.438c10.553-10.558 24.383-17.873 39.84-20.303" fill="#009b4a"/><path d="m200.337 128.995c0 3.853-.3 7.623-.886 11.33l56.514 8.939c.189-1.185-.391-2.496-1.783-3.64l-32.194-26.564c-2.764-2.283-3.465-6.633-1.527-9.656l22.425-35.225c.966-1.514 1.099-2.938.552-4.01l-50.98 25.983c5.018 9.854 7.879 21.015 7.879 32.843" fill="#1b5ced"/><path d="m192.458 96.152 50.98-25.983c-.552-1.078-1.78-1.772-3.57-1.882l-41.685-2.584c-3.572-.217-6.689-3.317-6.905-6.915l-2.548-41.66c-.108-1.789-.839-3.016-1.9-3.571l-25.973 50.981c13.586 6.94 24.665 18.034 31.601 31.614" fill="#eb3200"/><path d="m128.003 56.637c11.834 0 22.988 2.864 32.854 7.901l25.973-50.981c-1.072-.529-2.493-.396-4.025.555l-35.221 22.423c-3.014 1.927-7.374 1.237-9.653-1.525l-26.58-32.209c-1.123-1.4-2.434-1.96-3.623-1.763l8.955 56.494c3.693-.573 7.461-.895 11.32-.895" fill="#ebad00"/><path d="m139.314 200.448 8.957 56.524c1.173-.189 2.253-1.154 2.911-2.807l15.294-38.854c1.334-3.336 5.258-5.336 8.726-4.438l40.432 10.448c1.723.43 3.133.13 3.977-.713l-40.447-40.449c-10.577 10.554-24.407 17.875-39.85 20.289" fill="#009b4a"/><path d="m199.451 140.325c-2.407 15.435-9.73 29.254-20.287 39.834l40.447 40.449c.863-.86 1.166-2.26.699-3.985l-10.426-40.425c-.908-3.473 1.1-7.396 4.436-8.711l38.824-15.328c1.674-.654 2.62-1.711 2.821-2.895z" fill="#3c98ff"/><path d="m128.003 201.344c-11.834 0-22.987-2.868-32.852-7.896l-25.981 50.967c1.08.561 2.507.411 4.027-.56l35.201-22.404c3.039-1.92 7.369-1.225 9.67 1.527l26.566 32.207c1.143 1.4 2.453 1.961 3.637 1.787l-8.957-56.524c-3.684.594-7.457.896-11.311.896" fill="#ebad00"/><path d="m63.55 161.845-50.994 25.961c.564 1.077 1.791 1.807 3.58 1.917l41.668 2.547c3.591.23 6.694 3.331 6.911 6.928l2.582 41.653c.107 1.797.82 3.023 1.873 3.564l25.981-50.967c-13.594-6.937-24.663-18.023-31.601-31.603" fill="#eb3200"/><path d="m113.093 141.874c2.816.431 5.646 0 8.174-1.307l2.023-1.039c6.606-3.355 9.236-11.44 5.873-18.03l-12.967-25.479c-.773-1.471-2.153-2.508-3.72-2.764-.866-.127-1.738 0-2.483.391-1.063.535-1.83 1.529-2.156 2.75-.302 1.209-.148 2.523.432 3.668l12.494 24.534c1.406 2.78.316 6.183-2.477 7.613-1.076.552-2.264.732-3.447.552-1.771-.297-3.317-1.423-4.171-3.038l-12.491-24.528c-4.059-7.975-1.049-17.678 6.665-21.629 2.911-1.473 6.161-1.965 9.415-1.473 5.129.82 9.605 4.094 12 8.797l12.973 25.479c6.193 12.147 1.353 27.057-10.797 33.241l-2.026 1.039c-4.668 2.371-9.886 3.201-15.056 2.383-7.821-1.233-14.612-6.16-18.18-13.182l-18.261-35.828-.266-.515c-2.394 5.022-4.144 10.448-5.064 16.221-5.096 32.269 16.911 62.581 49.173 67.667 32.241 5.125 62.544-16.892 67.671-49.162 5.108-32.249-16.934-62.537-49.181-67.64-21.867-3.472-42.781 5.533-55.599 21.734l21.585 42.396c1.939 3.803 5.644 6.477 9.864 7.149" fill="#ebad00"/></svg>

<?xml version="1.0" encoding="UTF-8" standalone="no"?>
<svg width="256px" height="256px" viewBox="0 0 256 256" version="1.1" xmlns="http://www.w3.org/2000/svg" xmlns:xlink="http://www.w3.org/1999/xlink" preserveAspectRatio="xMidYMid">
	<g>
		<path d="M76.843,77.835 L36.385,37.397 C35.545,38.237 35.258,39.639 35.698,41.362 L46.118,81.788 C47.024,85.265 45.012,89.185 41.684,90.491 L2.844,105.814 C1.164,106.474 0.231,107.536 0.032,108.72 L56.547,117.673 C58.965,102.236 66.263,88.409 76.843,77.835" fill="#3C98FF"></path>
		<path d="M55.651,128.995 C55.651,125.145 55.952,121.367 56.547,117.673 L0.032,108.72 C-0.148,109.908 0.432,111.22 1.824,112.347 L34.018,138.924 C36.774,141.215 37.465,145.557 35.545,148.581 L13.126,183.808 C12.169,185.329 12.036,186.745 12.556,187.806 L63.55,161.845 C58.512,151.977 55.651,140.821 55.651,128.995" fill="#1B5CED"></path>
		<path d="M116.683,57.532 L107.728,1.038 C106.545,1.227 105.482,2.175 104.822,3.839 L89.489,42.675 C88.179,46.016 84.274,48.012 80.784,47.115 L40.372,36.689 C38.626,36.222 37.241,36.535 36.385,37.397 L76.843,77.835 C87.396,67.277 101.226,59.962 116.683,57.532" fill="#009B4A"></path>
		<path d="M200.337,128.995 C200.337,132.848 200.037,136.618 199.451,140.325 L255.965,149.264 C256.154,148.079 255.574,146.768 254.182,145.624 L221.988,119.06 C219.224,116.777 218.523,112.427 220.461,109.404 L242.886,74.179 C243.852,72.665 243.985,71.241 243.438,70.169 L192.458,96.152 C197.476,106.006 200.337,117.167 200.337,128.995" fill="#1B5CED"></path>
		<path d="M192.458,96.152 L243.438,70.169 C242.886,69.091 241.658,68.397 239.868,68.287 L198.183,65.703 C194.611,65.486 191.494,62.386 191.278,58.788 L188.73,17.128 C188.622,15.339 187.891,14.112 186.83,13.557 L160.857,64.538 C174.443,71.478 185.522,82.572 192.458,96.152" fill="#EB3200"></path>
		<path d="M128.003,56.637 C139.837,56.637 150.991,59.501 160.857,64.538 L186.83,13.557 C185.758,13.028 184.337,13.161 182.805,14.112 L147.584,36.535 C144.57,38.462 140.21,37.772 137.931,35.01 L111.351,2.801 C110.228,1.401 108.917,0.841 107.728,1.038 L116.683,57.532 C120.376,56.959 124.144,56.637 128.003,56.637" fill="#EBAD00"></path>
		<path d="M139.314,200.448 L148.271,256.972 C149.444,256.783 150.524,255.818 151.182,254.165 L166.476,215.311 C167.81,211.975 171.734,209.975 175.202,210.873 L215.634,221.321 C217.357,221.751 218.767,221.451 219.611,220.608 L179.164,180.159 C168.587,190.713 154.757,198.034 139.314,200.448" fill="#009B4A"></path>
		<path d="M199.451,140.325 C197.044,155.76 189.721,169.579 179.164,180.159 L219.611,220.608 C220.474,219.748 220.777,218.348 220.31,216.623 L209.884,176.198 C208.976,172.725 210.984,168.802 214.32,167.487 L253.144,152.159 C254.818,151.505 255.764,150.448 255.965,149.264 L199.451,140.325" fill="#3C98FF"></path>
		<path d="M128.003,201.344 C116.169,201.344 105.016,198.476 95.151,193.448 L69.17,244.415 C70.25,244.976 71.677,244.826 73.197,243.855 L108.398,221.451 C111.437,219.531 115.767,220.226 118.068,222.978 L144.634,255.185 C145.777,256.585 147.087,257.146 148.271,256.972 L139.314,200.448 C135.63,201.042 131.857,201.344 128.003,201.344" fill="#EBAD00"></path>
		<path d="M63.55,161.845 L12.556,187.806 C13.12,188.883 14.347,189.613 16.136,189.723 L57.804,192.27 C61.395,192.5 64.498,195.601 64.715,199.198 L67.297,240.851 C67.404,242.648 68.117,243.874 69.17,244.415 L95.151,193.448 C81.557,186.511 70.488,175.425 63.55,161.845" fill="#EB3200"></path>
		<path d="M113.093,141.874 C115.909,142.305 118.739,141.874 121.267,140.567 L123.29,139.528 C129.896,136.173 132.526,128.088 129.163,121.498 L116.196,96.019 C115.423,94.548 114.043,93.511 112.476,93.255 C111.61,93.128 110.738,93.255 109.993,93.646 C108.93,94.181 108.163,95.175 107.837,96.396 C107.535,97.605 107.689,98.919 108.269,100.064 L120.763,124.598 C122.169,127.378 121.079,130.781 118.286,132.211 C117.21,132.763 116.022,132.943 114.839,132.763 C113.068,132.466 111.522,131.34 110.668,129.725 L98.177,105.197 C94.118,97.222 97.128,87.519 104.842,83.568 C107.753,82.095 111.003,81.603 114.257,82.095 C119.386,82.915 123.862,86.189 126.257,90.892 L139.23,116.371 C145.423,128.518 140.583,143.428 128.433,149.612 L126.407,150.651 C121.739,153.022 116.521,153.852 111.351,153.034 C103.53,151.801 96.739,146.874 93.171,139.852 L74.91,104.024 L74.644,103.509 C72.25,108.531 70.5,113.957 69.58,119.73 C64.484,151.999 86.491,182.311 118.753,187.397 C150.994,192.522 181.297,170.505 186.424,138.235 C191.532,105.986 169.49,75.698 137.243,70.595 C115.376,67.123 94.462,76.128 81.644,92.329 L103.229,134.725 C105.168,138.528 108.873,141.202 113.093,141.874" fill="#EBAD00"></path>
	</g>
</svg>
